src/pdp/components/img/order-historyWhite.svg

<svg enable-background="new 0 0 50 50" height="50" viewBox="0 0 50 50" width="50" xmlns="http://www.w3.org/2000/svg"><path d="m43.419 10.704c0-.649-.646-1.183-1.29-1.183h-6.613c-.645-5.912-5.55-10.527-11.516-10.527-5.952 0-10.871 4.615-11.517 10.527h-6.596c-.646 0-1.306.534-1.306 1.183l-2.581 36.845c0 .724.513 1.457 1.291 1.457h41.419c.73 0 1.29-.604 1.29-1.457zm-19.419-9.071c4.518 0 8.289 3.417 8.936 7.888h-17.87c.659-4.47 4.402-7.888 8.934-7.888zm-16.952 10.527h5.307v6.576c0 .793.516 1.312 1.291 1.312s1.291-.519 1.291-1.312v-6.576h18.127v6.576c0 .793.517 1.312 1.291 1.312.775 0 1.292-.519 1.292-1.312v-6.576h5.32l1.807 24.992h-37.403zm-2.323 34.22.516-6.604h37.662l.516 6.604z" fill="#fff" stroke="#fff" stroke-width=".4" transform="translate(1 1)"/></svg>

<?xml version="1.0" encoding="utf-8"?>
<!-- Generator: Adobe Illustrator 15.1.0, SVG Export Plug-In . SVG Version: 6.00 Build 0)  -->
<!DOCTYPE svg PUBLIC "-//W3C//DTD SVG 1.1//EN" "http://www.w3.org/Graphics/SVG/1.1/DTD/svg11.dtd">
<svg version="1.1" id="Layer_1" xmlns="http://www.w3.org/2000/svg" xmlns:xlink="http://www.w3.org/1999/xlink" x="0px" y="0px"
	 width="50px" height="50px" viewBox="0 0 50 50" enable-background="new 0 0 50 50" xml:space="preserve">
<g id="My-Account-desktop">
	<g id="_x30_1_x5F_Dashboard" transform="translate(-148.000000, -344.000000)">
		<g id="Menu" transform="translate(125.000000, 180.000000)">
			<g id="Group-4" transform="translate(21.000000, 62.000000)">
				<g id="Order-history" transform="translate(3.000000, 103.000000)">
					<path id="Shape" fill="#ffffff" stroke="#ffffff" stroke-width="0.4" d="M43.419,10.704c0-0.649-0.646-1.183-1.29-1.183h-6.613
						C34.871,3.609,29.966-1.006,24-1.006c-5.952,0-10.871,4.615-11.517,10.527H5.887c-0.646,0-1.306,0.534-1.306,1.183L2,47.549
						c0,0.724,0.513,1.457,1.291,1.457H44.71c0.73,0,1.29-0.604,1.29-1.457L43.419,10.704z M24,1.633
						c4.518,0,8.289,3.417,8.936,7.888h-17.87C15.725,5.051,19.468,1.633,24,1.633z M7.048,12.16h5.307v6.576
						c0,0.793,0.516,1.312,1.291,1.312s1.291-0.519,1.291-1.312V12.16h18.127v6.576c0,0.793,0.517,1.312,1.291,1.312
						c0.775,0,1.292-0.519,1.292-1.312V12.16h5.32l1.807,24.992H5.371L7.048,12.16z M4.725,46.38l0.516-6.604h37.662l0.516,6.604
						H4.725z"/>
				</g>
			</g>
		</g>
	</g>
</g>
</svg>
